X:236
T:Wine Shower
S:Ross Ainslee and Jarlath Henderson
Z:robin.beech@mcgill.ca
R:reel
M:4/4
L:1/8
K:D
F>DAD B2AG | F>DFA GFEG | F>DAD B2AF | (3Bcd AF GFEG :|
FAd2- dAFD | (3DFA cA BdAG | F3A dAFA | (3GFE FD E3G |
FAdA FAdA | FAdA e3g | fde2 dBAd | AB2d BAGA |:
FDD2 BDFD | D2FD GFEG | FDD2 DFAD | ABAF GFEG :|
(3FED FA dAFD | (3DFA cA BdAG | F3A dAFA | (3GFE FD E3G |
FAdA FAdA | FAdA e3g | fde2 dBAd | AB2d BAGA |]
